X:163
T:Foggy Mountain Special
C:Chris Thile (Merlefest Allstar Jam, 1999)
N:Transcribed by Steve Keating
R:bluegrass
L:1/8
Q:1/4=225
M:4/4
K:C
z8 | "G"z2 _B=B G2 F2 | G2 [GG,][GG,] [GG,][GG,] [G2G,2] | G2 _B=B G2 FG | zF G_B AG D^D | 
"C"EC DC A,B, CD | ^D/E/F/G/ cG _B=B GE | (3"G"FED C/D/F ^C/=C/G, _B,/=B,/G | 
GG zD F^F DC | "D"D^F G^G A=G/A/ cd | z^c =c_B =BG EF | "G"ED ^C=C (3_B,=B,D FG | 
G,G, ^c/d/d dd c/d/d | d2 _B=B GE (3FED | EC DF G_B =Bc | ^c/d/g gg gg gg | gd dd eA _B=B | 
"C"GE FF FF FE | DE/D/ ^C=C _B,/=B,/C/^C/ DE | "G"GA _B/=B/c ^cd _B=B | GE (3FEA (3cAG (3Acd | 
(3"D"g^fd (3ABc (3BAG (3^FGA | (3G^FE (3DFA dz/^c/ z=c | "G"_B=B GE (3FED _B,/=B,/G | 
G,[DG,] [gB][gB] [DG,][gBD] [gB][gB] | [g8B8] | 


